Simply-Red-Circles/scalable/apps/leocad.svg

<svg xmlns="http://www.w3.org/2000/svg" width="48" height="48" viewBox="0 0 12.7 12.7"><path d="M6.34.07a6.29 6.29 0 0 0-6.29 6.3 6.29 6.29 0 0 0 6.3 6.28 6.29 6.29 0 0 0 6.28-6.29A6.29 6.29 0 0 0 6.34.07zm-.01.94a5.4 5.4 0 0 1 5.4 5.4 5.4 5.4 0 0 1-5.4 5.41 5.4 5.4 0 0 1-5.41-5.4A5.4 5.4 0 0 1 6.32 1zm.06 1.1c-.43 0-.75.2-.75.44v.31h-.02l-.49.25a.18.18 0 0 0-.05.05 1.2 1.2 0 0 0-.45-.08c-.43 0-.75.18-.75.43v.26c-.03 0-.06 0-.08.02l-.93.5a.17.17 0 0 0-.07.08l-.01.02v.02l-.02.05v4.06c0 .06.03.12.09.15l3.38 1.89h.01l.07.02h.01l.06-.01.03-.01 3.42-1.9c.05-.03.09-.1.09-.15V4.47a.18.18 0 0 0-.09-.15h-.02c0-.01 0-.02-.02-.03l-.93-.5h-.01V3.5c0-.24-.33-.43-.76-.43-.18 0-.34.04-.47.1l-.02-.03-.45-.22h-.01v-.37c0-.25-.33-.43-.76-.43zm-.48.77c.13.06.3.1.48.1.2 0 .36-.04.49-.1v.49c0 .05-.18.17-.49.17-.3 0-.48-.12-.48-.17v-.5zm-.27.37v.12c0 .24.32.43.75.43s.76-.19.76-.43V3.3l.21.1-.01.1v.81c0 .25.32.44.75.44s.76-.19.76-.44V4.2l.53.28-3.06 1.7-3.03-1.7.58-.32v.18c0 .24.32.43.75.43s.76-.19.76-.43V3.5a.28.28 0 0 0-.03-.12l.28-.14zm1.98.59c.13.06.3.1.48.1.2 0 .36-.04.5-.1v.48c0 .05-.18.17-.5.17-.3 0-.48-.11-.48-.17v-.48zm-3.47 0c.13.06.3.1.48.1.2 0 .36-.04.5-.1v.49c0 .05-.18.16-.5.16-.31 0-.48-.11-.48-.16v-.5zm2.23.18c-.43 0-.75.18-.75.43v.82c0 .25.32.43.75.43s.76-.18.76-.43v-.82c0-.25-.33-.43-.76-.43zm-.48.76c.13.06.3.1.48.1.2 0 .36-.04.49-.1v.49c0 .05-.17.17-.49.17-.3 0-.48-.12-.48-.17v-.49z" fill="#a02c2c"/></svg>

<?xml version="1.0" encoding="UTF-8" standalone="no"?>
<svg
   xmlns:dc="http://purl.org/dc/elements/1.1/"
   xmlns:cc="http://creativecommons.org/ns#"
   xmlns:rdf="http://www.w3.org/1999/02/22-rdf-syntax-ns#"
   xmlns:svg="http://www.w3.org/2000/svg"
   xmlns="http://www.w3.org/2000/svg"
   xmlns:sodipodi="http://sodipodi.sourceforge.net/DTD/sodipodi-0.dtd"
   xmlns:inkscape="http://www.inkscape.org/namespaces/inkscape"
   width="48"
   height="48"
   viewBox="0 0 12.7 12.7"
   version="1.1"
   id="svg4"
   sodipodi:docname="leocad.svg"
   inkscape:version="0.92.4 (5da689c313, 2019-01-14)">
  <metadata
     id="metadata10">
    <rdf:RDF>
      <cc:Work
         rdf:about="">
        <dc:format>image/svg+xml</dc:format>
        <dc:type
           rdf:resource="http://purl.org/dc/dcmitype/StillImage" />
        <dc:title></dc:title>
      </cc:Work>
    </rdf:RDF>
  </metadata>
  <defs
     id="defs8" />
  <sodipodi:namedview
     pagecolor="#ffffff"
     bordercolor="#666666"
     borderopacity="1"
     objecttolerance="10"
     gridtolerance="10"
     guidetolerance="10"
     inkscape:pageopacity="0"
     inkscape:pageshadow="2"
     inkscape:window-width="1087"
     inkscape:window-height="480"
     id="namedview6"
     showgrid="false"
     inkscape:zoom="4.9166667"
     inkscape:cx="2.1355932"
     inkscape:cy="24"
     inkscape:window-x="0"
     inkscape:window-y="25"
     inkscape:window-maximized="0"
     inkscape:current-layer="svg4" />
  <path
     d="M 6.34,0.07 A 6.29,6.29 0 0 0 0.05,6.37 6.29,6.29 0 0 0 6.35,12.65 6.29,6.29 0 0 0 12.63,6.36 6.29,6.29 0 0 0 6.34,0.07 Z M 6.33,1.01 a 5.4,5.4 0 0 1 5.4,5.4 5.4,5.4 0 0 1 -5.4,5.41 A 5.4,5.4 0 0 1 0.92,6.42 5.4,5.4 0 0 1 6.32,1 Z m 0.06,1.1 c -0.43,0 -0.75,0.2 -0.75,0.44 V 2.86 H 5.62 L 5.13,3.11 A 0.18,0.18 0 0 0 5.08,3.16 1.2,1.2 0 0 0 4.63,3.08 C 4.2,3.08 3.88,3.26 3.88,3.51 v 0.26 c -0.03,0 -0.06,0 -0.08,0.02 L 2.87,4.29 A 0.17,0.17 0 0 0 2.8,4.37 L 2.79,4.39 V 4.41 L 2.77,4.46 v 4.06 c 0,0.06 0.03,0.12 0.09,0.15 l 3.38,1.89 h 0.01 l 0.07,0.02 H 6.33 L 6.39,10.57 6.42,10.56 9.84,8.66 C 9.89,8.63 9.93,8.56 9.93,8.51 V 4.47 A 0.18,0.18 0 0 0 9.84,4.32 H 9.82 C 9.82,4.31 9.82,4.3 9.8,4.29 L 8.87,3.79 H 8.86 V 3.5 C 8.86,3.26 8.53,3.07 8.1,3.07 7.92,3.07 7.76,3.11 7.63,3.17 L 7.61,3.14 7.16,2.92 H 7.15 V 2.55 C 7.15,2.3 6.82,2.12 6.39,2.12 Z M 5.91,2.88 c 0.13,0.06 0.3,0.1 0.48,0.1 0.2,0 0.36,-0.04 0.49,-0.1 V 3.37 C 6.88,3.42 6.7,3.54 6.39,3.54 6.09,3.54 5.91,3.42 5.91,3.37 V 2.87 Z M 5.64,3.25 v 0.12 c 0,0.24 0.32,0.43 0.75,0.43 0.43,0 0.76,-0.19 0.76,-0.43 V 3.3 L 7.36,3.4 7.35,3.5 v 0.81 c 0,0.25 0.32,0.44 0.75,0.44 0.43,0 0.76,-0.19 0.76,-0.44 V 4.2 L 9.39,4.48 6.33,6.18 3.3,4.48 3.88,4.16 v 0.18 c 0,0.24 0.32,0.43 0.75,0.43 0.43,0 0.76,-0.19 0.76,-0.43 V 3.5 A 0.28,0.28 0 0 0 5.36,3.38 L 5.64,3.24 Z m 1.98,0.59 c 0.13,0.06 0.3,0.1 0.48,0.1 0.2,0 0.36,-0.04 0.5,-0.1 V 4.32 C 8.6,4.37 8.42,4.49 8.1,4.49 7.8,4.49 7.62,4.38 7.62,4.32 Z m -3.47,0 c 0.13,0.06 0.3,0.1 0.48,0.1 0.2,0 0.36,-0.04 0.5,-0.1 V 4.33 C 5.13,4.38 4.95,4.49 4.63,4.49 4.32,4.49 4.15,4.38 4.15,4.33 V 3.83 Z M 6.38,4.02 C 5.95,4.02 5.63,4.2 5.63,4.45 v 0.82 c 0,0.25 0.32,0.43 0.75,0.43 0.43,0 0.76,-0.18 0.76,-0.43 V 4.45 C 7.14,4.2 6.81,4.02 6.38,4.02 Z M 5.9,4.78 c 0.13,0.06 0.3,0.1 0.48,0.1 0.2,0 0.36,-0.04 0.49,-0.1 V 5.27 C 6.87,5.32 6.7,5.44 6.38,5.44 6.08,5.44 5.9,5.32 5.9,5.27 Z"
     id="path2"
     inkscape:connector-curvature="0"
     style="fill:#a02c2c" />
</svg>
